X:139
T:Jim Keeffe's
R:polka
H:Also in D, #62
Z:id:hn-polka-139
M:2/4
L:1/8
K:Dmix
dc/d/ ed | cA A2 | dc/d/ ef | g2 fe |
dc/d/ ed | cA Ae | f/g/a ge |1 d2 dA :|2 d2 de || 
|: f>e fd | g>f ge | f>e fa | ge ce | 
f>e fd | g>f ge | f/g/a ge |1 d2 de :|2 d2 dA ||

